configs/marketplace-logos/sushi_swap.svg

<svg xmlns="http://www.w3.org/2000/svg" fill="none" viewBox="0 0 512 512">
  <g clip-path="url(#sushi_swap_svg__a)">
    <path fill="#fff" d="M0 0h512v512H0z"/>
    <g clip-path="url(#sushi_swap_svg__b)">
      <mask id="sushi_swap_svg__c" width="512" height="512" x="0" y="0" maskUnits="userSpaceOnUse" style="mask-type:luminance">
        <path fill="#fff" d="M512 0H0v512h512V0Z"/>
      </mask>
      <g mask="url(#sushi_swap_svg__c)">
        <path fill="url(#sushi_swap_svg__d)" d="M106.667 49.067 503.467 320l-98.134 145.067L8.533 192l98.134-142.933Z"/>
        <path fill="url(#sushi_swap_svg__e)" d="M503.467 320c-34.134 49.067-149.334 29.867-258.134-46.933C134.4 198.4 74.667 98.133 106.667 49.067 140.8 0 256 19.2 364.8 96c110.933 72.533 170.667 174.933 138.667 224Z"/>
        <path fill="url(#sushi_swap_svg__f)" d="M405.333 462.933C371.2 512 256 492.8 147.2 416 38.4 339.2-23.467 241.067 10.667 189.867 44.8 140.8 160 160 268.8 236.8c108.8 76.8 168.533 177.067 136.533 226.133Z"/>
        <path fill="#0E0F23" d="m503.467 320-98.134 145.067C371.2 514.133 256 492.8 147.2 418.133c-21.333-14.933-40.533-29.866-59.733-46.933 14.933-2.133 34.133-10.667 53.333-32 34.133-36.267 51.2-44.8 66.133-42.667 14.934 0 32 14.934 59.734 51.2 27.733 36.267 66.133 46.934 89.6 27.734 2.133-2.134 4.266-2.134 6.4-4.267 19.2-14.933 25.6-21.333 61.866-89.6 8.534-17.067 38.4-44.8 78.934-32 10.666 27.733 10.666 51.2 0 70.4Z"/>
        <path fill="#fff" fill-rule="evenodd" d="M488.533 311.467c-29.866 42.666-134.4 21.333-234.666-49.067C151.467 192 91.733 102.4 121.6 59.733 151.467 17.067 256 38.4 356.267 108.8c100.266 70.4 160 160 132.266 202.667Zm-93.866-64C379.733 268.8 328.533 258.133 277.333 224c-49.066-34.133-78.933-78.933-64-100.267 14.934-21.333 66.134-10.666 117.334 23.467 49.066 34.133 78.933 78.933 64 100.267Z" clip-rule="evenodd"/>
        <path fill="#fff" d="M98.133 98.133C98.133 96 96 93.867 93.867 96c-2.134 2.133-4.267 2.133-4.267 4.267 2.133 6.4 4.267 10.666 4.267 14.933 0 2.133 2.133 4.267 4.266 2.133 2.134 0 4.267-2.133 2.134-4.266 0-4.267 0-8.534-2.134-14.934Zm10.667 34.134c0-2.134-2.133-4.267-4.267-2.134-2.133 2.134-2.133 2.134-2.133 4.267 23.467 53.333 72.533 110.933 136.533 153.6 2.134 2.133 4.267 0 6.4 0 2.134-2.133 0-4.267 0-6.4C179.2 238.933 132.267 183.467 108.8 132.267Zm258.133 209.066c-2.133 0-4.266 0-4.266 2.134 0 2.133 0 4.266 2.133 4.266 6.4 2.134 14.933 4.267 21.333 6.4 2.134 0 4.267 0 4.267-2.133s0-4.267-2.133-4.267c-6.4-2.133-14.934-4.266-21.334-6.4Zm38.4 8.534c-2.133 0-4.266 2.133-4.266 4.266 0 2.134 2.133 4.267 4.266 4.267 17.067 2.133 36.267 4.267 51.2 2.133 2.134 0 4.267-2.133 4.267-4.266 0-2.134-2.133-4.267-4.267-4.267-17.066 2.133-34.133 0-51.2-2.133Z"/>
      </g>
    </g>
  </g>
  <defs>
    <linearGradient id="sushi_swap_svg__d" x1="184.41" x2="263.1" y1="10.545" y2="280.757" gradientUnits="userSpaceOnUse">
      <stop stop-color="#03B8FF"/>
      <stop offset="1" stop-color="#FA52A0"/>
    </linearGradient>
    <linearGradient id="sushi_swap_svg__e" x1="249.212" x2="327.904" y1="-8.329" y2="261.886" gradientUnits="userSpaceOnUse">
      <stop stop-color="#03B8FF"/>
      <stop offset="1" stop-color="#FA52A0"/>
    </linearGradient>
    <linearGradient id="sushi_swap_svg__f" x1="119.808" x2="198.5" y1="29.357" y2="299.571" gradientUnits="userSpaceOnUse">
      <stop stop-color="#03B8FF"/>
      <stop offset="1" stop-color="#FA52A0"/>
    </linearGradient>
    <clipPath id="sushi_swap_svg__a">
      <path fill="#fff" d="M0 0h512v512H0z"/>
    </clipPath>
    <clipPath id="sushi_swap_svg__b">
      <path fill="#fff" d="M0 0h512v512H0z"/>
    </clipPath>
  </defs>
</svg>

<svg width="512" height="512" viewBox="0 0 512 512" fill="none" xmlns="http://www.w3.org/2000/svg">
<g clip-path="url(#clip0_1_15286)">
<rect width="512" height="512" fill="white"/>
<g clip-path="url(#clip1_1_15286)">
<mask id="mask0_1_15286" style="mask-type:luminance" maskUnits="userSpaceOnUse" x="0" y="0" width="512" height="512">
<path d="M512 0H0V512H512V0Z" fill="white"/>
</mask>
<g mask="url(#mask0_1_15286)">
<path d="M106.667 49.0667L503.467 320L405.333 465.067L8.53333 192L106.667 49.0667Z" fill="url(#paint0_linear_1_15286)"/>
<path d="M503.467 320C469.333 369.067 354.133 349.867 245.333 273.067C134.4 198.4 74.6667 98.1333 106.667 49.0667C140.8 -6.58616e-07 256 19.2 364.8 96C475.733 168.533 535.467 270.933 503.467 320Z" fill="url(#paint1_linear_1_15286)"/>
<path d="M405.333 462.933C371.2 512 256 492.8 147.2 416C38.4 339.2 -23.4667 241.067 10.6667 189.867C44.8 140.8 160 160 268.8 236.8C377.6 313.6 437.333 413.867 405.333 462.933Z" fill="url(#paint2_linear_1_15286)"/>
<path d="M503.467 320L405.333 465.067C371.2 514.133 256 492.8 147.2 418.133C125.867 403.2 106.667 388.267 87.4667 371.2C102.4 369.067 121.6 360.533 140.8 339.2C174.933 302.933 192 294.4 206.933 296.533C221.867 296.533 238.933 311.467 266.667 347.733C294.4 384 332.8 394.667 356.267 375.467C358.4 373.333 360.533 373.333 362.667 371.2C381.867 356.267 388.267 349.867 424.533 281.6C433.067 264.533 462.933 236.8 503.467 249.6C514.133 277.333 514.133 300.8 503.467 320Z" fill="#0E0F23"/>
<path fill-rule="evenodd" clip-rule="evenodd" d="M488.533 311.467C458.667 354.133 354.133 332.8 253.867 262.4C151.467 192 91.7333 102.4 121.6 59.7333C151.467 17.0667 256 38.4 356.267 108.8C456.533 179.2 516.267 268.8 488.533 311.467ZM394.667 247.467C379.733 268.8 328.533 258.133 277.333 224C228.267 189.867 198.4 145.067 213.333 123.733C228.267 102.4 279.467 113.067 330.667 147.2C379.733 181.333 409.6 226.133 394.667 247.467Z" fill="white"/>
<path d="M98.1333 98.1333C98.1333 96 96 93.8667 93.8666 96C91.7333 98.1333 89.6 98.1333 89.6 100.267C91.7333 106.667 93.8666 110.933 93.8666 115.2C93.8666 117.333 96 119.467 98.1333 117.333C100.267 117.333 102.4 115.2 100.267 113.067C100.267 108.8 100.267 104.533 98.1333 98.1333Z" fill="white"/>
<path d="M108.8 132.267C108.8 130.133 106.667 128 104.533 130.133C102.4 132.267 102.4 132.267 102.4 134.4C125.867 187.733 174.933 245.333 238.933 288C241.067 290.133 243.2 288 245.333 288C247.467 285.867 245.333 283.733 245.333 281.6C179.2 238.933 132.267 183.467 108.8 132.267Z" fill="white"/>
<path d="M366.933 341.333C364.8 341.333 362.667 341.333 362.667 343.467C362.667 345.6 362.667 347.733 364.8 347.733C371.2 349.867 379.733 352 386.133 354.133C388.267 354.133 390.4 354.133 390.4 352C390.4 349.867 390.4 347.733 388.267 347.733C381.867 345.6 373.333 343.467 366.933 341.333Z" fill="white"/>
<path d="M405.333 349.867C403.2 349.867 401.067 352 401.067 354.133C401.067 356.267 403.2 358.4 405.333 358.4C422.4 360.533 441.6 362.667 456.533 360.533C458.667 360.533 460.8 358.4 460.8 356.267C460.8 354.133 458.667 352 456.533 352C439.467 354.133 422.4 352 405.333 349.867Z" fill="white"/>
</g>
</g>
</g>
<defs>
<linearGradient id="paint0_linear_1_15286" x1="184.41" y1="10.5451" x2="263.1" y2="280.757" gradientUnits="userSpaceOnUse">
<stop stop-color="#03B8FF"/>
<stop offset="1" stop-color="#FA52A0"/>
</linearGradient>
<linearGradient id="paint1_linear_1_15286" x1="249.212" y1="-8.32854" x2="327.904" y2="261.886" gradientUnits="userSpaceOnUse">
<stop stop-color="#03B8FF"/>
<stop offset="1" stop-color="#FA52A0"/>
</linearGradient>
<linearGradient id="paint2_linear_1_15286" x1="119.808" y1="29.3568" x2="198.5" y2="299.571" gradientUnits="userSpaceOnUse">
<stop stop-color="#03B8FF"/>
<stop offset="1" stop-color="#FA52A0"/>
</linearGradient>
<clipPath id="clip0_1_15286">
<rect width="512" height="512" fill="white"/>
</clipPath>
<clipPath id="clip1_1_15286">
<rect width="512" height="512" fill="white"/>
</clipPath>
</defs>
</svg>
